X:202
T:Hunting Chorus, The TS.202
T:Huntsman’s Chorus,aka TS.202
M:2/4
L:1/8
Q:1/4=100
S:Thomas Sands’ MS,1810,Lincolnshire
R:Song
C:Weber
O:England;Lincolnshire
Z:vmp.Ruairidh Greig, 2011
K:D
“Molto Vivace”A,|D2D/E/[F/D/][G/E/]|[A2F2][FD][FD]|[CE]A[CE]A|F/G/F/E/ DA,|
“crotchet added”D2D/D/[F/D/][G/E/]|[A2F2][FD][FD]|[F/C2]E/D/E/ [FC][EC]|[D3A,3]||
A|[d2A2]([d/A]A/) ([d/A]e/)|[f2A2][dA] [dA]|[e2c2][ec] [ec]|([fd][ec]) [dd] [AA]|
w:The mist th-at a-t mid-night en-vel-op’d the moun–tain, like
[d2A2] ([d/A]A/) ([d/A]e/)|[f2A2] [dA] [dA]|[c2A2] [ec] [dB]|[c2A2]z[ec]|
w:spir–its h-ave fled at the dawn-ing of day; While
[d2A2]([d/A]A/) ([d/A]e/)|[f2A2][dA] [dA]|[e2c2][ec] [ec]|([fd][eA]) [dd]
w:Sol w-ith h-is rad-iance is gil-ding yon f-ount-ain
[AA]|[d2A2]([d/A]A/) ([d/A]e/)|[f2A2][dA] [dA]|[A2c2][ec] [ec]|[c2A2]z
w:as thro’ th-e gr-een mead-ow it rip-ples a-way.
[ec]|[f2c2][fc] [fc]|[d2B2] [dB] [dB]|[g2B2][gB] [gB]|[e2c2] [ec]
w:Then on to the chase for the shrill Horn is sound-ing
[ec]|[f2c2][fc] [fc]|[d2B2] [dB] [dB]|[g2B2][gB] [gB]|[e2c2]
w:And blithe-ly its Ech-oes re-doub-le the strain;
[AA] [AA]|[f2d2] [fd] [fd]|[g2d2][fd] [fd]|[e2c2]([f/d/][e/c/]) ([d/B/][e/c/])|[f2d2] [dA]
w:See the stag from the side of yon for–est i-s bound-ing,
[dA]|[f2d2][fd] [fd]|{a/}[g2d2][fd] [fd]|[f/c2]e/d/e/ [fc] [ec]|[d3d3]
w:Then on to the chace ov-er mount—-ain and plain
A|A A/ A/ A A/ A/|A A/ A/ A A/ A/|”$”[d2A2][AA] [fd]|[d2A2][AA] [fd]|
w:La la la la la la la la la la la la la la la la la la la la la
{a/}[gc] [ec] {a/}[gc] [ec]|{a/}[gc] [ec] {a/}[gc] [ec]|
w:la la la la la la la la la la la la la la la la la la la la la la la la la la la la la
[d2A2][AA] [fd]|[d2A2][AA] [fd]|{a/}[gc] [ec] {a/}[gc] [ec]|{a/}[gc] [ec] {a/}[gc] [ec]|
w: la la la la la la la la la la la la la la la la la la la la
[fA] [f/A/] [f/A/] [aA]|[fA] [f/A/] [f/A/] [aA]|[fd] d/ d/ d [fd]|1H[e4c4]:|2d4|]
w: la la la la la la la la la la la la la la la la la la la la

